X: 4212
T: Miss Maria Dundass's    Reel
C: by Nath. Gow
%R: reel
B: Niel Gow & Sons "A Fourth Collection of Strathspey Reels, etc." v.4 p.21 #2
Z: 2022 John Chambers <jc:trillian.mit.edu>
M: C
L: 1/8
K: F
% - - - - - - - - - -
V: 1 staves=2
f |\
	c>F F/F/F Tc2Ac | dfef cAAf | c>F F/F/F Tc2Ac | dfTcA G/G/G G :| g | (f/g/a) Tg>a fd-df | cfAf cA-A>c |
	(f/g/a) Tg>a fdd>f | cfTcA G/G/G Gf || (f/g/a) Tg>a fddf | cfAf cAA>c | faga fgdf | cdAf G/G/G G |]
% - - - - - - - - - -
% Voice 2 preserves the staff layout in the book.
V: 2 clef=bass middle=d
z |\
f2f2 f2f2 | b2c'2 a2f2 | f2f2 f2f2 | b2a2 g2g :| z | f2c2 B2B2 | A2f2 F2F2 |
f2c2 B2b2 | a2f2 c'2c2 || f2c2 B2b2 | a2f2 f2f2 | f2e2 d2B2 | A2F2 c2C |]


